X:11
T:Morrison's
T:The Pipe Across the Hearth
M:6/8
L:1/8
R:jig
K:Edor
"Em"~E3 ~B3|EBE "D"AFD|"Em"~E3 ~B3|"D"dcB AFD|\
"Em"~E3 ~B3|EBE "D"AFD|"Em"GFG "D"ABc|1 "B"dAG FED:|2 "B"dAG FGA|
"Em"Bee fee|"Am"aee "B"fed|"Em"Bee fee|"Am"fag fed|\
"Em"Bee fee|"Am"aee "B"fed|"Em"gfe "D"d2A|"B"BAG FGA|
"Em"Bee fee|"Am"aee "B"fed|"Em"Bee fee|"D"fag def|\
"G"~g3 gfe|"D"def "G"g2d|"D"edc d2A|"B"BAG FED||
